assets/image/cbs-cse.svg

<?xml version="1.0" encoding="UTF-8"?>
<svg width="116px" height="70px" viewBox="0 0 116 70" version="1.1" xmlns="http://www.w3.org/2000/svg" xmlns:xlink="http://www.w3.org/1999/xlink">
    <!-- Generator: Sketch 46 (44423) - http://www.bohemiancoding.com/sketch -->
    <title>Slice</title>
    <desc>Created with Sketch.</desc>
    <defs></defs>
    <g id="Page-1" stroke="none" stroke-width="1" fill="none" fill-rule="evenodd">
        <g id="cbs-cse" fill-rule="nonzero">
            <path d="M6.6163,45.3512 C6.6163,44.9622 6.5023,44.6912 6.2753,44.5412 C6.0483,44.3902 5.7183,44.3142 5.2873,44.3142 C4.8753,44.3142 4.5513,44.3902 4.3143,44.5412 C4.0753,44.6912 3.9563,44.9622 3.9563,45.3512 L3.9563,59.7472 C3.9563,60.1382 4.0753,60.4072 4.3143,60.5592 C4.5513,60.7102 4.8753,60.7862 5.2873,60.7862 C5.7183,60.7862 6.0483,60.7102 6.2753,60.5592 C6.5023,60.4072 6.6163,60.1382 6.6163,59.7472 L6.6163,54.8522 L10.6043,54.8522 L10.6043,60.4622 C10.6043,61.0672 10.5283,61.6072 10.3763,62.0832 C10.2253,62.5592 9.9553,62.9572 9.5663,63.2822 C9.1783,63.6062 8.6363,63.8562 7.9453,64.0292 C7.2533,64.2012 6.3663,64.2882 5.2873,64.2882 C4.2053,64.2882 3.3243,64.2012 2.6443,64.0292 C1.9633,63.8562 1.4283,63.6062 1.0383,63.2822 C0.6493,62.9572 0.3793,62.5592 0.2283,62.0832 C0.0763,61.6072 0.0013,61.0672 0.0013,60.4622 L0.0013,44.6382 C0.0013,44.0332 0.0763,43.4932 0.2283,43.0172 C0.3793,42.5412 0.6493,42.1412 1.0383,41.8172 C1.4283,41.4942 1.9633,41.2462 2.6443,41.0712 C3.3243,40.8992 4.2053,40.8112 5.2873,40.8112 C6.3663,40.8112 7.2533,40.8992 7.9453,41.0712 C8.6363,41.2462 9.1783,41.4942 9.5663,41.8172 C9.9553,42.1412 10.2253,42.5412 10.3763,43.0172 C10.5283,43.4932 10.6043,44.0332 10.6043,44.6382 L10.6043,50.0212 L6.6163,50.0212 L6.6163,45.3512 Z" id="Fill-1" fill="#4C62A7"></path>
            <path d="M18.2878,60.3962 C18.5248,60.3962 18.7368,60.3372 18.9208,60.2182 C19.1038,60.1002 19.1958,59.8892 19.1958,59.5862 L19.1958,54.5272 C19.1958,54.2922 19.1088,54.1232 18.9358,54.0242 C18.7638,53.9282 18.5908,53.8782 18.4178,53.8782 L16.4728,53.8782 L16.4728,60.3962 L18.2878,60.3962 Z M18.4178,50.3782 C18.5908,50.3782 18.7468,50.3132 18.8888,50.1832 C19.0288,50.0542 19.0988,49.8372 19.0988,49.5342 L19.0988,45.5142 C19.0988,45.2122 19.0068,45.0002 18.8228,44.8812 C18.6388,44.7632 18.4508,44.7042 18.2558,44.7042 L16.4728,44.7042 L16.4728,50.3782 L18.4178,50.3782 Z M12.4838,41.2012 L19.1638,41.2012 C19.7478,41.2012 20.2828,41.2612 20.7678,41.3802 C21.2548,41.5002 21.6648,41.6932 22.0008,41.9642 C22.3358,42.2342 22.5998,42.6022 22.7948,43.0662 C22.9898,43.5312 23.0868,44.1202 23.0868,44.8332 L23.0868,49.8262 C23.0868,50.4542 22.9238,50.9242 22.5998,51.2372 C22.2758,51.5502 21.9738,51.7712 21.6928,51.9022 L21.6928,52.1282 C21.9948,52.2382 22.3188,52.4362 22.6658,52.7292 C23.0108,53.0202 23.1838,53.4592 23.1838,54.0422 L23.1838,60.2342 C23.1838,60.9262 23.0868,61.5102 22.8918,61.9862 C22.6978,62.4612 22.4268,62.8392 22.0818,63.1202 C21.7358,63.4012 21.3138,63.6022 20.8168,63.7202 C20.3208,63.8392 19.7688,63.8982 19.1638,63.8982 L12.4838,63.8982 L12.4838,41.2012 Z" id="Fill-3" fill="#4C62A7"></path>
            <path d="M31.6467,45.0929 C31.6467,44.5739 31.2027,44.3139 30.3177,44.3139 C29.3877,44.3139 28.9237,44.5739 28.9237,45.0929 L28.9237,47.3289 C28.9237,47.6979 28.9617,47.9789 29.0367,48.1729 C29.1127,48.3679 29.2157,48.5299 29.3447,48.6579 L34.2727,53.1659 C34.7057,53.5329 35.0517,53.9559 35.3117,54.4299 C35.5697,54.9059 35.7007,55.5759 35.7007,56.4419 L35.7007,60.2989 C35.7007,61.7269 35.2737,62.7489 34.4187,63.3649 C33.5657,63.9799 32.1987,64.2879 30.3177,64.2879 C29.3447,64.2879 28.5067,64.2219 27.8047,64.0929 C27.1017,63.9639 26.5347,63.7419 26.1017,63.4289 C25.6697,63.1149 25.3517,62.7049 25.1467,62.1969 C24.9397,61.6889 24.8377,61.0559 24.8377,60.2989 L24.8377,55.0799 L28.7927,55.0799 L28.7927,59.8459 C28.7927,60.1909 28.9287,60.4349 29.1987,60.5759 C29.4697,60.7159 29.8417,60.7859 30.3177,60.7859 C30.7287,60.7859 31.0627,60.7159 31.3227,60.5759 C31.5817,60.4349 31.7117,60.1909 31.7117,59.8459 L31.7117,56.8289 C31.7117,56.5279 31.6787,56.2849 31.6147,56.1009 C31.5497,55.9169 31.4307,55.7499 31.2577,55.5979 L26.6537,51.6089 C26.1137,51.1349 25.6907,50.6149 25.3887,50.0539 C25.0857,49.4909 24.9357,48.7019 24.9357,47.6859 L24.9357,44.7999 C24.9357,43.3529 25.3567,42.3259 26.1987,41.7199 C27.0427,41.1149 28.4157,40.8119 30.3177,40.8119 C32.3067,40.8119 33.6907,41.1209 34.4677,41.7369 C35.2457,42.3519 35.6357,43.3319 35.6357,44.6709 L35.6357,49.0159 L31.6467,49.0159 L31.6467,45.0929 Z" id="Fill-5" fill="#4C62A7"></path>
            <path d="M4.2698,6.7057 C5.8248,7.7557 7.4098,8.7757 9.0428,9.7557 L9.0298,9.5547 L6.4308,3.4897 C5.9378,2.3717 5.4638,1.1807 4.9698,-0.0003 L-0.0002,-0.0003 L-0.0002,4.5887 C0.2338,4.4047 0.5108,4.2847 0.8138,4.2407 C2.6158,4.0507 2.8478,6.1407 4.2698,6.7057" id="Fill-7" fill="#4C62A7"></path>
            <path d="M15.3339,26.8215 L13.3499,21.1465 L10.8129,14.6905 L10.2629,13.3495 L8.9759,12.5325 L3.1649,9.1875 C2.3109,8.5355 1.0399,8.3665 0.3859,7.5405 C0.2709,7.3445 0.1339,7.1445 -0.0001,6.9415 L-0.0001,35.6415 L18.1889,35.6415 L18.1169,35.4045 L15.3339,26.8215" id="Fill-10" fill="#4C62A7"></path>
            <path d="M11.0474,10.5197 C11.3414,11.7647 12.6534,12.0437 13.4824,12.7797 C16.8064,15.0717 20.2074,17.5187 23.4524,19.9797 C23.4524,19.9797 23.5224,20.0277 23.6274,20.1007 L23.6204,20.0347 C23.6204,20.0347 23.6204,17.1907 23.7204,15.2927 C23.5904,11.5777 23.3004,6.4837 22.6444,3.2887 C22.2664,2.3777 21.8304,1.5177 21.9714,0.6127 C21.9944,0.4157 21.9604,0.2087 21.9094,-0.0003 L7.5324,-0.0003 C7.6884,0.4647 7.8434,0.9317 8.0024,1.3917 C9.0104,4.4117 9.9644,7.5067 11.0474,10.5197" id="Fill-13" fill="#4C62A7"></path>
            <path d="M25.2097,1.277 C25.6607,2.38 25.3257,3.485 25.4107,4.611 C25.5577,7.799 25.6847,10.993 25.1897,14.185 C25.0127,16.321 24.8377,18.482 24.8017,20.625 C24.8017,20.625 24.8117,20.753 24.8257,20.979 C24.9637,21.091 25.0687,21.187 25.1077,21.239 L25.2017,21.169 L26.8537,16.105 L28.9007,9.273 C29.5187,6.711 30.4947,4.113 30.6047,1.507 C30.3787,1.056 30.1547,0.514 30.1587,0 L25.2567,0 C25.2867,0.427 25.2867,0.855 25.2097,1.277" id="Fill-16" fill="#4C62A7"></path>
            <path d="M23.8229,24.9489 C23.6539,25.5209 23.4899,26.0659 23.3179,26.5989 C22.3299,29.6669 21.3489,32.6129 20.3359,35.6419 L19.3309,35.6419 C19.1379,34.9809 18.9789,34.3169 18.7469,33.6519 C16.9599,27.7859 14.7759,21.9559 13.8519,16.0799 C13.8939,15.9169 13.8479,15.6229 14.0779,15.5829 C17.2239,17.5459 20.4719,19.5169 23.4399,21.7289 C23.5319,21.8399 23.6579,21.9439 23.7889,22.0359 L23.8229,24.9489 Z M33.816,0.0002 L35.638,0.0002 L35.638,30.1682 C35.448,30.0042 35.294,29.7872 35.133,29.5872 C32.55,27.1912 29.773,24.9492 26.971,22.7902 C26.61,22.3712 26.096,22.0902 25.714,21.7142 L27.416,17.1252 C28.055,15.5182 28.632,13.8532 29.569,12.4362 C30.106,10.7632 30.642,8.9882 31.363,7.3652 C32.438,4.9822 33.145,2.6042 33.77,0.1782 C33.791,0.1172 33.801,0.0582 33.816,0.0002 Z" id="Fill-18" fill="#4C62A7"></path>
            <path d="M23.8537,27.9098 L23.0847,29.8658 C22.4287,31.8048 21.8097,33.7168 21.2257,35.6418 L23.5797,35.6418 L23.8567,27.9928 L23.8537,27.9098" id="Fill-22" fill="#4C62A7"></path>
            <path d="M27.2662,24.4328 C26.4362,23.8538 26.4362,23.8558 26.2592,23.7198 C26.2292,23.6958 26.2452,23.6988 26.2082,23.6758 C26.1292,23.6298 26.0532,23.5958 25.9812,23.5478 C25.9652,23.5378 25.9482,23.5708 25.9322,23.5618 C25.8672,23.5188 25.7802,23.4448 25.6842,23.3868 C25.6462,23.4388 25.6422,23.6298 25.6022,23.6988 C25.4782,24.0068 25.2912,24.2558 25.2912,24.2558 C25.1692,24.5908 25.0732,24.8288 24.9832,25.0468 C24.9872,25.3898 24.9892,25.7348 24.9892,26.0878 C24.9802,28.2648 24.7102,31.9698 24.7792,32.2518 C24.7792,32.2518 24.7082,34.3748 24.6532,35.6418 L35.6382,35.6418 L35.6382,30.2648 L35.3432,30.2698 C32.6372,28.3248 29.9872,26.3648 27.2662,24.4328" id="Fill-24" fill="#4C62A7"></path>
            <path d="M48.761,64.0418 L48.761,0.0608 L112.742,0.0608 L112.742,64.0418 L48.761,64.0418 Z M52.761,60.0418 L108.741,60.0418 L108.741,4.0618 L52.761,4.0618 L52.761,60.0418 Z" id="Fill-26" fill="#4B62A7"></path>
            <polygon id="Fill-28" fill="#FFFFFF" points="70.846 69.5338 115.681 69.5338 115.681 35.5688 70.846 35.5688"></polygon>
            <path d="M83.1049,45.4499 C83.1049,45.0569 82.9899,44.7839 82.7609,44.6309 C82.5309,44.4779 82.1979,44.4009 81.7609,44.4009 C81.3459,44.4009 81.0179,44.4779 80.7779,44.6309 C80.5369,44.7839 80.4169,45.0569 80.4169,45.4499 L80.4169,59.7409 C80.4169,60.1339 80.5369,60.4069 80.7779,60.5599 C81.0179,60.7129 81.3459,60.7889 81.7609,60.7889 C82.1979,60.7889 82.5309,60.7129 82.7609,60.5599 C82.9899,60.4069 83.1049,60.1339 83.1049,59.7409 L83.1049,54.9219 L87.1359,54.9219 L87.1359,60.4609 C87.1359,61.0739 87.0599,61.6199 86.9069,62.0999 C86.7539,62.5809 86.4809,62.9849 86.0879,63.3129 C85.6939,63.6409 85.1479,63.8919 84.4489,64.0669 C83.7489,64.2419 82.8529,64.3289 81.7609,64.3289 C80.6679,64.3289 79.7779,64.2419 79.0899,64.0669 C78.4019,63.8919 77.8609,63.6409 77.4669,63.3129 C77.0739,62.9849 76.8009,62.5809 76.6479,62.0999 C76.4949,61.6199 76.4189,61.0739 76.4189,60.4609 L76.4189,44.7289 C76.4189,44.1169 76.4949,43.5709 76.6479,43.0899 C76.8009,42.6099 77.0739,42.2049 77.4669,41.8769 C77.8609,41.5499 78.4019,41.2989 79.0899,41.1239 C79.7779,40.9489 80.6679,40.8619 81.7609,40.8619 C82.8529,40.8619 83.7489,40.9489 84.4489,41.1239 C85.1479,41.2989 85.6939,41.5499 86.0879,41.8769 C86.4809,42.2049 86.7539,42.6099 86.9069,43.0899 C87.0599,43.5709 87.1359,44.1169 87.1359,44.7289 L87.1359,50.0389 L83.1049,50.0389 L83.1049,45.4499 Z" id="Fill-29" fill="#4B62A7"></path>
            <path d="M96.5098,45.1877 C96.5098,44.6637 96.0618,44.4007 95.1658,44.4007 C94.2258,44.4007 93.7568,44.6637 93.7568,45.1877 L93.7568,47.3177 C93.7568,47.6897 93.7948,47.9737 93.8718,48.1707 C93.9478,48.3677 94.0518,48.5307 94.1828,48.6617 L99.1648,53.2177 C99.6018,53.5897 99.9518,54.0157 100.2138,54.4967 C100.4758,54.9767 100.6068,55.6547 100.6068,56.5277 L100.6068,60.2977 C100.6068,61.7397 100.1748,62.7717 99.3118,63.3947 C98.4488,64.0177 97.0668,64.3287 95.1658,64.3287 C94.1828,64.3287 93.3358,64.2637 92.6258,64.1327 C91.9158,64.0007 91.3418,63.7777 90.9048,63.4607 C90.4678,63.1437 90.1458,62.7287 89.9388,62.2147 C89.7298,61.7017 89.6268,61.0627 89.6268,60.2977 L89.6268,55.1517 L93.6258,55.1517 L93.6258,59.8387 C93.6258,60.1877 93.7618,60.4347 94.0358,60.5757 C94.3088,60.7187 94.6848,60.7897 95.1658,60.7897 C95.5808,60.7897 95.9198,60.7187 96.1818,60.5757 C96.4448,60.4347 96.5758,60.1877 96.5758,59.8387 L96.5758,56.9217 C96.5758,56.6157 96.5428,56.3697 96.4768,56.1847 C96.4118,55.9987 96.2908,55.8297 96.1168,55.6757 L91.4618,51.6447 C90.9158,51.1647 90.4898,50.6397 90.1838,50.0717 C89.8778,49.5037 89.7258,48.7067 89.7258,47.6787 L89.7258,44.8927 C89.7258,43.4297 90.1518,42.3917 91.0038,41.7787 C91.8558,41.1677 93.2428,40.8617 95.1658,40.8617 C97.1758,40.8617 98.5748,41.1727 99.3618,41.7957 C100.1478,42.4177 100.5418,43.4067 100.5418,44.7617 L100.5418,49.0227 L96.5098,49.0227 L96.5098,45.1877 Z" id="Fill-30" fill="#4B62A7"></path>
            <polygon id="Fill-31" fill="#4B62A7" points="103.4251 41.1237 112.7331 41.1237 112.7331 44.6637 107.4561 44.6637 107.4561 50.3987 112.5701 50.3987 112.5701 53.9387 107.4561 53.9387 107.4561 60.5267 112.7331 60.5267 112.7331 64.0667 103.4251 64.0667"></polygon>
        </g>
    </g>
</svg>

<svg width="116" height="70" xmlns="http://www.w3.org/2000/svg"><g fill="none"><path d="M6.616 45.351c0-.389-.114-.66-.34-.81-.228-.15-.558-.227-.989-.227-.412 0-.736.076-.973.227-.239.15-.358.421-.358.81v14.396c0 .391.12.66.358.812.237.151.561.227.973.227.431 0 .761-.076.988-.227.227-.152.341-.42.341-.812v-4.895h3.988v5.61a5.32 5.32 0 0 1-.228 1.621 2.53 2.53 0 0 1-.81 1.2c-.388.323-.93.573-1.62.746-.693.172-1.58.26-2.659.26-1.082 0-1.963-.088-2.643-.26-.68-.173-1.216-.423-1.606-.747a2.53 2.53 0 0 1-.81-1.199 5.322 5.322 0 0 1-.227-1.62V44.637c0-.605.075-1.145.227-1.62.151-.477.421-.877.81-1.2.39-.324.925-.572 1.606-.747.68-.172 1.561-.26 2.643-.26 1.08 0 1.966.088 2.658.26.691.175 1.233.423 1.621.746.39.324.66.724.81 1.2a5.32 5.32 0 0 1 .228 1.621v5.383H6.616v-4.67zm11.672 15.045c.237 0 .449-.059.633-.178.183-.118.275-.329.275-.632v-5.059c0-.235-.087-.404-.26-.503a1.058 1.058 0 0 0-.518-.146h-1.945v6.518h1.815zm.13-10.018a.68.68 0 0 0 .47-.195c.14-.129.21-.346.21-.649v-4.02c0-.302-.091-.514-.275-.633a1.035 1.035 0 0 0-.567-.177h-1.783v5.674h1.945zm-5.934-9.177h6.68c.584 0 1.119.06 1.604.18.487.12.897.312 1.233.583.335.27.599.638.794 1.102.195.465.292 1.054.292 1.767v4.993c0 .628-.163 1.098-.487 1.411-.324.313-.626.534-.907.665v.226c.302.11.626.308.973.601.345.291.518.73.518 1.313v6.192c0 .692-.097 1.276-.292 1.752-.194.475-.465.853-.81 1.134a3.118 3.118 0 0 1-1.265.6 7.1 7.1 0 0 1-1.653.178h-6.68V41.201zm19.163 3.892c0-.52-.444-.78-1.33-.78-.93 0-1.393.26-1.393.78v2.236c0 .369.038.65.113.844.076.195.179.357.308.485l4.928 4.508c.433.367.779.79 1.039 1.264.258.476.389 1.146.389 2.012v3.857c0 1.428-.427 2.45-1.282 3.066-.853.615-2.22.923-4.101.923-.973 0-1.811-.066-2.513-.195-.703-.13-1.27-.351-1.703-.664a2.771 2.771 0 0 1-.955-1.232c-.207-.508-.31-1.141-.31-1.898v-5.22h3.956v4.767c0 .345.136.589.406.73.27.14.643.21 1.119.21.41 0 .745-.07 1.005-.21.259-.141.389-.385.389-.73v-3.017c0-.301-.033-.544-.097-.728a1.207 1.207 0 0 0-.357-.503l-4.604-3.99a5.632 5.632 0 0 1-1.265-1.554c-.303-.563-.453-1.352-.453-2.368V44.8c0-1.447.42-2.474 1.263-3.08.844-.605 2.217-.908 4.119-.908 1.989 0 3.373.309 4.15.925.778.615 1.168 1.595 1.168 2.934v4.345h-3.99v-3.923zM4.27 6.706a105.92 105.92 0 0 0 4.773 3.05l-.013-.201-2.6-6.065C5.939 2.372 5.465 1.18 4.97 0H0v4.589c.234-.184.51-.304.814-.348 1.802-.19 2.034 1.9 3.456 2.465m11.064 20.116l-1.984-5.675-2.537-6.456-.55-1.341-1.287-.817-5.811-3.345C2.31 8.536 1.04 8.366.385 7.54.272 7.345.135 7.144 0 6.941v28.7h18.189l-.072-.236-2.783-8.584M11.047 10.52c.294 1.245 1.606 1.524 2.435 2.26a275.127 275.127 0 0 1 9.97 7.2l.175.12-.007-.065s0-2.844.1-4.742c-.13-3.715-.42-8.81-1.076-12.004-.378-.911-.814-1.771-.673-2.676A1.76 1.76 0 0 0 21.91 0H7.532c.156.465.311.932.47 1.392 1.008 3.02 1.962 6.115 3.045 9.128M25.21 1.277c.45 1.103.116 2.208.2 3.334.148 3.188.275 6.382-.22 9.574-.177 2.136-.352 4.297-.388 6.44 0 0 .01.128.024.354.138.112.243.208.282.26l.094-.07 1.652-5.064L28.9 9.273c.618-2.562 1.594-5.16 1.704-7.766-.226-.451-.45-.993-.446-1.507h-4.902c.03.427.03.855-.047 1.277m-1.386 23.672a69.477 69.477 0 0 1-.505 1.65 840.548 840.548 0 0 1-2.982 9.043H19.33c-.193-.661-.352-1.325-.584-1.99-1.787-5.866-3.971-11.696-4.895-17.572.042-.163-.004-.457.226-.497 3.146 1.963 6.394 3.934 9.362 6.146.092.11.218.215.349.307l.034 2.913zM33.816 0h1.822v30.168c-.19-.164-.344-.38-.505-.58-2.583-2.397-5.36-4.639-8.162-6.798-.361-.419-.875-.7-1.257-1.076l1.702-4.589c.639-1.607 1.216-3.272 2.153-4.689.537-1.673 1.073-3.448 1.794-5.07 1.075-2.384 1.782-4.762 2.407-7.188.021-.06.031-.12.046-.178zm-9.962 27.91l-.77 1.956a191.028 191.028 0 0 0-1.858 5.776h2.354l.277-7.65-.003-.082m3.412-3.477c-.83-.58-.83-.577-1.007-.713-.03-.024-.014-.021-.05-.044-.08-.046-.156-.08-.228-.128-.016-.01-.033.023-.049.014-.065-.043-.152-.117-.248-.175-.038.052-.042.243-.082.312-.124.308-.31.557-.31.557-.123.335-.219.573-.309.79.004.344.006.689.006 1.042-.009 2.177-.279 5.882-.21 6.164 0 0-.07 2.123-.126 3.39h10.985v-5.377l-.295.005c-2.706-1.945-5.356-3.905-8.077-5.837" fill="#4C62A7"/><path d="M48.761 64.042V.06h63.981v63.98H48.761zm4-4h55.98V4.062h-55.98v55.98z" fill="#4B62A7"/><path fill="#FFF" d="M70.846 69.534h44.835V35.569H70.846z"/><path d="M83.105 45.45c0-.393-.115-.666-.344-.82-.23-.152-.563-.23-1-.23-.415 0-.743.078-.983.23-.241.154-.361.427-.361.82v14.29c0 .394.12.667.36.82.24.153.569.229.984.229.437 0 .77-.076 1-.23.229-.152.344-.425.344-.818v-4.82h4.03v5.54c0 .613-.075 1.159-.228 1.639a2.563 2.563 0 0 1-.82 1.213c-.393.328-.94.579-1.638.754-.7.175-1.596.262-2.688.262-1.093 0-1.983-.087-2.671-.262-.688-.175-1.23-.426-1.623-.754a2.563 2.563 0 0 1-.82-1.213 5.425 5.425 0 0 1-.228-1.64V44.73a5.4 5.4 0 0 1 .229-1.64c.153-.48.426-.884.819-1.212.394-.327.935-.578 1.623-.753.688-.175 1.578-.262 2.67-.262 1.093 0 1.989.087 2.689.262.699.175 1.245.426 1.639.753.393.328.666.733.819 1.213a5.4 5.4 0 0 1 .229 1.639v5.31h-4.031v-4.59zm13.405-.262c0-.524-.448-.787-1.344-.787-.94 0-1.41.263-1.41.787v2.13c0 .372.039.656.116.853.076.197.18.36.31.49l4.983 4.557a4.5 4.5 0 0 1 1.049 1.279c.262.48.393 1.158.393 2.03v3.77c0 1.443-.432 2.475-1.295 3.098-.863.623-2.245.934-4.146.934-.983 0-1.83-.065-2.54-.196-.71-.132-1.284-.355-1.721-.672a2.796 2.796 0 0 1-.966-1.246c-.21-.513-.312-1.152-.312-1.917v-5.146h3.999v4.687c0 .349.136.596.41.737.273.143.649.214 1.13.214.415 0 .754-.071 1.016-.214.263-.141.394-.388.394-.737v-2.917c0-.306-.033-.552-.1-.737a1.223 1.223 0 0 0-.36-.51l-4.654-4.03a5.704 5.704 0 0 1-1.278-1.573c-.306-.568-.458-1.365-.458-2.393v-2.786c0-1.463.426-2.501 1.278-3.114.852-.611 2.239-.917 4.162-.917 2.01 0 3.409.31 4.196.934.786.622 1.18 1.61 1.18 2.966v4.26H96.51v-3.834zm6.915-4.064h9.308v3.54h-5.277v5.735h5.114v3.54h-5.114v6.588h5.277v3.54h-9.308z" fill="#4B62A7"/></g></svg>
